src/img/services-lines.svg

<svg width="848" height="428" fill="none" xmlns="http://www.w3.org/2000/svg"><path d="M1.00004 424.664C223.5 456.164 662.594 175.543 546.5 59.0001 430.406-57.5432 193 194.5 681.5 175S159.5 585.5 847 .999987" stroke="url(#paint0_linear)" stroke-dasharray="6.8 6.8"/><g filter="url(#filter0_d)"><circle cx="668" cy="162" r="19" fill="#7AACFF"/><circle cx="668" cy="162" r="14" fill="#1467FF"/><circle cx="668" cy="162" r="9" fill="#fff"/></g><path d="M672.744 157.717l-6.795 5.434-2.565-3.248c-.136-.17-.329-.276-.537-.293-.207-.017-.413.056-.571.202-.158.146-.257.354-.273.578-.017.225.049.447.183.619l3.042 3.851c.129.164.312.269.51.293.198.025.397-.033.557-.161l7.386-5.906c.168-.135.279-.335.31-.559.031-.223-.021-.451-.145-.632-.125-.182-.31-.303-.517-.336-.206-.034-.417.023-.585.157v.001z" fill="#1467FF"/><defs><linearGradient id="paint0_linear" x1="836.5" y1="135.663" x2="116.5" y2="406.163" gradientUnits="userSpaceOnUse"><stop offset=".231057" stop-color="gray"/><stop offset=".855301" stop-opacity="0"/></linearGradient><filter id="filter0_d" x="635" y="143" width="66" height="66" filterUnits="userSpaceOnUse" color-interpolation-filters="sRGB"><feFlood flood-opacity="0" result="BackgroundImageFix"/><feColorMatrix in="SourceAlpha" values="0 0 0 0 0 0 0 0 0 0 0 0 0 0 0 0 0 0 127 0"/><feOffset dy="14"/><feGaussianBlur stdDeviation="7"/><feColorMatrix values="0 0 0 0 0.080303 0 0 0 0 0.402479 0 0 0 0 1 0 0 0 0.28 0"/><feBlend in2="BackgroundImageFix" result="effect1_dropShadow"/><feBlend in="SourceGraphic" in2="effect1_dropShadow" result="shape"/></filter></defs></svg>

<svg width="848" height="428" viewBox="0 0 848 428" fill="none" xmlns="http://www.w3.org/2000/svg">
<path d="M1.00004 424.664C223.5 456.164 662.594 175.543 546.5 59C430.406 -57.5433 193 194.5 681.5 175C1170 155.5 159.5 585.5 847 0.999926" stroke="url(#paint0_linear)" stroke-dasharray="6.8 6.8"/>
<g filter="url(#filter0_d)">
<circle cx="668" cy="162" r="19" fill="#7AACFF"/>
<circle cx="668" cy="162" r="14" fill="#1467FF"/>
<circle cx="668" cy="162" r="9" fill="white"/>
</g>
<path d="M672.744 157.717L665.949 163.151L663.384 159.903C663.248 159.733 663.055 159.627 662.847 159.61C662.64 159.593 662.434 159.665 662.276 159.812C662.118 159.958 662.019 160.166 662.003 160.39C661.986 160.615 662.052 160.837 662.186 161.009L665.228 164.86C665.357 165.024 665.54 165.129 665.738 165.153C665.936 165.178 666.135 165.12 666.295 164.992L673.681 159.086C673.849 158.951 673.96 158.75 673.991 158.527C674.022 158.304 673.97 158.076 673.846 157.895C673.721 157.713 673.536 157.592 673.329 157.559C673.123 157.525 672.912 157.582 672.744 157.716V157.717Z" fill="#1467FF"/>
<defs>
<filter id="filter0_d" x="635" y="143" width="66" height="66" filterUnits="userSpaceOnUse" color-interpolation-filters="sRGB">
<feFlood flood-opacity="0" result="BackgroundImageFix"/>
<feColorMatrix in="SourceAlpha" type="matrix" values="0 0 0 0 0 0 0 0 0 0 0 0 0 0 0 0 0 0 127 0"/>
<feOffset dy="14"/>
<feGaussianBlur stdDeviation="7"/>
<feColorMatrix type="matrix" values="0 0 0 0 0.080303 0 0 0 0 0.402479 0 0 0 0 1 0 0 0 0.28 0"/>
<feBlend mode="normal" in2="BackgroundImageFix" result="effect1_dropShadow"/>
<feBlend mode="normal" in="SourceGraphic" in2="effect1_dropShadow" result="shape"/>
</filter>
<linearGradient id="paint0_linear" x1="836.5" y1="135.663" x2="116.5" y2="406.163" gradientUnits="userSpaceOnUse">
<stop offset="0.231057" stop-color="#808080"/>
<stop offset="0.855301" stop-opacity="0"/>
</linearGradient>
</defs>
</svg>
